X: 40454
T: Tom Sullivan's
R: polka
M: 2/4
K: Dmajor
|:G/|E/F/G A>B|=cA AG|Ad dc|
[1 d2 d>e|fd ed|=cA A>B|cA GE|D2 D3/2:|
[2 d2 de|f/g/a e>d|=cA A>B|cA GE|D2 D3/2||
|:e/|fd ed|=cA A>g|fd eA|
[1 d2 d>e|fd ed|=cA A>B|cA GE|D2 D3/2:|
[2 d2 de|fa e>d|=cA A>B|cA GE|D2 D3/2||

